X:1
T:Title
%%score { ( 1 3 ) | ( 2 4 ) }
L:1/8
M:6/8
K:F
V:1 treble nm="Grand Piano"
V:3 treble 
V:2 bass 
V:4 bass 
V:1
 z3 z2[Q:1/4=87] C | AAA AGF | A[Ac][Gc] [Fc]2 [Fc] | [Ec][EG][FA] [GB][FA][EG] | A3- A2 F | %5
 AAA AGF | A[Ac][Gc] c2 A | Gcc [Ge][Ec][Fd] |[M:5/8] [Ec]-[Ec]- [Ec]3 |[M:3/16] c3/2 | %10
[M:3/4] dc AA GF | A6 | dc AF [FA][FG] | [EG]6 | [EG][EG] [EA] [EB]2 [EB]/[EB]/ | %15
[M:13/16] AABc-<cc3/2 |[M:3/4] [Fd][DFB] [B,DG][A,CF] [CFA][B,CG] | %17
[M:5/8] [A,CF]-[A,CF]- [A,CF]3 |] %18
V:2
 z3 z2 [F,A,] | [F,C][F,C][F,C] [F,C][F,B,C][F,A,C] | [F,CF][F,C][F,B,] [F,A,]2 [F,A,] | %3
 [C,G,][C,C][C,C] [C,C][C,C][C,C] | [F,CF]3- [F,CF]2 [F,A,] | %5
 [F,CF][F,CF][F,CF] [F,CF][F,B,C][F,A,C] | [F,CF][F,C][F,B,] [F,A,F]2 [F,CF] | %7
 [G,CE][G,E][G,E] [G,,G,][G,,G,][G,,G,] |[M:5/8] G,3 z2 |[M:3/16] [F,A,F]3/2 | %10
[M:3/4] [F,B,F][F,A,F] [F,CF][F,CF] [F,B,C][F,A,C] | F-[F,F-] [F,F-] [F,F]2 [F,A,F] | %12
 [F,B,F][F,A,F] [F,CF][D,=B,] [D,B,][D,B,] | [C,C]C, C, C,2 [C,C] | %14
 [C,C][C,C] [C,C] [C,C]2 [C,C]/[C,C]/ |[M:13/16] [F,CF][F,CF][F,B,F][F,A,F]-<[F,A,F][F,A,F]3/2 | %16
[M:3/4] [B,,B,]B,, B,,C, C,C, |[M:5/8] F,-F,- F,3 |] %18
V:3
 x6 | x6 | x6 | x6 | x6 | x6 | x6 | x6 |[M:5/8] z z2 B,2 |[M:3/16] x3/2 |[M:3/4] x6 | z C C C2 c | %12
 x6 | z C C C2 [EG] | x6 |[M:13/16] x13/2 |[M:3/4] x6 |[M:5/8] x5 |] %18
V:4
 x6 | x6 | x6 | x6 | x6 | x6 | x6 | x6 |[M:5/8] C,-C,- C,3 |[M:3/16] x3/2 |[M:3/4] x6 | %11
 .[F,C]2 z2 z2 | x6 | x6 | x6 |[M:13/16] x13/2 |[M:3/4] x6 |[M:5/8] x5 |] %18

